storage/app/icons/tabler/filled/transform.svg

<!--
version: "2.0"
unicode: "f6ac"
-->
<svg
  xmlns="http://www.w3.org/2000/svg"
  width="24"
  height="24"
  viewBox="0 0 24 24"
  fill="currentColor"
>
  <path d="M18 14a4 4 0 1 1 -3.995 4.2l-.005 -.2l.005 -.2a4 4 0 0 1 3.995 -3.8z" />
  <path d="M16.707 2.293a1 1 0 0 1 .083 1.32l-.083 .094l-1.293 1.293h3.586a3 3 0 0 1 2.995 2.824l.005 .176v3a1 1 0 0 1 -1.993 .117l-.007 -.117v-3a1 1 0 0 0 -.883 -.993l-.117 -.007h-3.585l1.292 1.293a1 1 0 0 1 -1.32 1.497l-.094 -.083l-3 -3a.98 .98 0 0 1 -.28 -.872l.036 -.146l.04 -.104c.058 -.126 .14 -.24 .245 -.334l2.959 -2.958a1 1 0 0 1 1.414 0z" />
  <path d="M3 12a1 1 0 0 1 .993 .883l.007 .117v3a1 1 0 0 0 .883 .993l.117 .007h3.585l-1.292 -1.293a1 1 0 0 1 -.083 -1.32l.083 -.094a1 1 0 0 1 1.32 -.083l.094 .083l3 3a.98 .98 0 0 1 .28 .872l-.036 .146l-.04 .104a1.02 1.02 0 0 1 -.245 .334l-2.959 2.958a1 1 0 0 1 -1.497 -1.32l.083 -.094l1.291 -1.293h-3.584a3 3 0 0 1 -2.995 -2.824l-.005 -.176v-3a1 1 0 0 1 1 -1z" />
  <path d="M6 2a4 4 0 1 1 -3.995 4.2l-.005 -.2l.005 -.2a4 4 0 0 1 3.995 -3.8z" />
</svg>

<svg xmlns="http://www.w3.org/2000/svg" width="24" height="24" fill="currentColor" viewBox="0 0 24 24"><path d="M18 14a4 4 0 1 1-3.995 4.2L14 18l.005-.2A4 4 0 0 1 18 14M16.707 2.293a1 1 0 0 1 .083 1.32l-.083.094L15.414 5H19a3 3 0 0 1 2.995 2.824L22 8v3a1 1 0 0 1-1.993.117L20 11V8a1 1 0 0 0-.883-.993L19 7h-3.585l1.292 1.293a1 1 0 0 1-1.32 1.497l-.094-.083-3-3a.98.98 0 0 1-.28-.872l.036-.146.04-.104q.087-.191.245-.334l2.959-2.958a1 1 0 0 1 1.414 0M3 12a1 1 0 0 1 .993.883L4 13v3a1 1 0 0 0 .883.993L5 17h3.585l-1.292-1.293a1 1 0 0 1-.083-1.32l.083-.094a1 1 0 0 1 1.32-.083l.094.083 3 3a.98.98 0 0 1 .28.872l-.036.146-.04.104a1 1 0 0 1-.245.334l-2.959 2.958a1 1 0 0 1-1.497-1.32l.083-.094L8.584 19H5a3 3 0 0 1-2.995-2.824L2 16v-3a1 1 0 0 1 1-1M6 2a4 4 0 1 1-3.995 4.2L2 6l.005-.2A4 4 0 0 1 6 2"/></svg>
